X: 15911
T: Grand Spey, The
R: reel
M: 4/4
K: Dmajor
|:FAdA BAdA|FAdA FE E2|FAdA BAdA|FAEG FDD2|
FAdA BAdA|FAdA FE E2|FABc defg|1 afge fddA:|2 afge fdd2||
|:f3d e3d|BdAd BdAd|f3d e3d|(3Bcd AF FE E2|
f3d e3d|(3Bcd Ad (3Bcd Ad|fbba faed|(3Bcd AG FDD2:|
|:faaf d3e|fbba bafe|(3fga fe d3A|BdAF FE E2|
faaf d3e|fbba bafe|(3fga fe d3A|BdAG FD D2|
faaf d3e|fbba bafe|(3fga fe d3e|fbba fe e2|
faaf d3e|fbba bafe|(3fga fe d3A|(3Bcd AG FD D2||

